src/svg/icon-sms.svg

<svg width="48" height="48" viewBox="0 0 48 48" fill="none" xmlns="http://www.w3.org/2000/svg">
<path fill-rule="evenodd" clip-rule="evenodd" d="M39.7143 8H8.28571C5.91878 8 4 9.70946 4 11.8182V32.1818C4 34.2905 5.91878 36 8.28571 36H18.6667L24 44L29.3333 36H39.7143C42.0812 36 44 34.2905 44 32.1818V11.8182C44 9.70946 42.0812 8 39.7143 8ZM33.9997 24H14.0003C12.8964 24 12 24.8946 12 26C12 27.1037 12.8964 28 14.0003 28H33.9997C35.1036 28 36 27.1037 36 26C36 24.8946 35.1036 24 33.9997 24ZM14.8575 20H29.1425C30.7195 20 32 19.1054 32 18C32 16.8963 30.7195 16 29.1425 16H14.8575C13.2805 16 12 16.8963 12 18C12 19.1054 13.2805 20 14.8575 20Z" fill="currentColor"/>
</svg>

<svg xmlns="http://www.w3.org/2000/svg" width="48" height="48" fill="none" viewBox="0 0 48 48"><path fill="currentColor" fill-rule="evenodd" d="M39.714 8H8.286C5.919 8 4 9.71 4 11.818v20.364C4 34.29 5.919 36 8.286 36h10.38L24 44l5.333-8h10.381C42.081 36 44 34.29 44 32.182V11.818C44 9.71 42.081 8 39.714 8M34 24H14a2 2 0 1 0 0 4h20a2.001 2.001 0 0 0 0-4m-19.142-4h14.284C30.72 20 32 19.105 32 18s-1.28-2-2.858-2H14.858C13.28 16 12 16.896 12 18s1.28 2 2.858 2" clip-rule="evenodd"/></svg>
